X: 95
T: Jenny Picking Cockles
M:C|
L:1/8
R:reel
K:Dmix
"D"Addc "Am"AGEF|"C"GEcE dEcE|"D"Addc "Am"AGEF|"C"GEcE "D"EDD2|
"D"Addc "Am"AGEF|"G"G2AB "C"~c3d|"Am"edcA AGEF|"C"GEcE "D"EDD2:|
|: "D"f3d efed|"A"^cAAB cdeg|"D"f3d "A"ed^cd|eaag edde|
"D"f3d efed|"A"^cAAB "Am"~=c3d|edcA "D"AGEF|"C"GEcE "D"EDD2:|


